libs/ui/packages/crypto-icons/src/svg/OSMO.svg

<svg width="24" height="24" viewBox="0 0 24 24" fill="none" xmlns="http://www.w3.org/2000/svg">
<path d="M10.8577 15.9773C7.64675 16.4415 5.27967 15.4823 4.42188 14.3886C4.68126 17.7191 7.46987 20.1446 10.8598 20.1446C14.362 20.1446 17.152 17.5558 17.2425 14.0549C17.0018 14.1663 16.6738 14.2464 16.2951 14.3389C15.9609 14.4205 15.5872 14.5117 15.1992 14.6426C14.8764 14.7537 14.5645 14.8786 14.2419 15.0077C13.3483 15.3655 12.3726 15.7561 10.8577 15.9773Z" fill="#302DBB"/>
<path d="M17.2443 13.046C17.2443 12.3224 15.9631 11.9072 14.2589 11.7648C13.0261 11.6699 11.7811 11.7885 10.3549 12.2156C9.12203 12.5715 8.01005 12.5122 7.20025 12.4173C5.39931 12.2156 4.4082 12.1919 4.4082 13.046C4.4082 14.2798 6.97059 15.822 10.8142 15.2882C12.2439 15.0877 13.1647 14.7336 14.0081 14.4092C14.3126 14.2921 14.607 14.1788 14.9116 14.0781C15.2779 13.9595 15.6305 13.8767 15.9459 13.8028C16.7024 13.6253 17.2443 13.4982 17.2443 13.046Z" fill="#302DBB"/>
<path d="M13.3169 8.66806C13.3169 9.36142 12.7668 9.92351 12.0881 9.92351C11.4095 9.92351 10.8594 9.36142 10.8594 8.66806C10.8594 7.97469 11.4095 7.4126 12.0881 7.4126C12.7668 7.4126 13.3169 7.97469 13.3169 8.66806Z" fill="#302DBB"/>
<path d="M14.0955 10.8582C14.382 10.8582 14.6143 10.6209 14.6143 10.3282C14.6143 10.0354 14.382 9.7981 14.0955 9.7981C13.8089 9.7981 13.5767 10.0354 13.5767 10.3282C13.5767 10.6209 13.8089 10.8582 14.0955 10.8582Z" fill="#302DBB"/>
<path fill-rule="evenodd" clip-rule="evenodd" d="M18.6996 3.27303C17.6708 2.56177 16.5673 2.1306 15.6005 2.02508C14.6537 1.92175 13.7187 2.12611 13.2197 2.85424C12.7208 3.58238 13.018 4.50963 13.4522 5.36104C13.4661 5.38843 13.4804 5.41564 13.4951 5.44268C12.6745 5.16483 11.7975 5.0144 10.8869 5.0144C6.2965 5.0144 2.58447 8.81388 2.58447 13.4923C2.58447 18.1707 6.2965 21.9702 10.8869 21.9702C15.4772 21.9702 19.1893 18.1707 19.1893 13.4923C19.1893 11.7776 18.6888 10.1811 17.8295 8.84636C17.8406 8.80734 17.8525 8.76657 17.8652 8.72426C18.1204 8.79782 18.3758 8.84908 18.6341 8.87728C19.5809 8.98061 20.5469 8.99288 21.0459 8.26475C21.5448 7.53662 21.401 6.58646 20.9668 5.73505C20.5235 4.86569 19.7285 3.98429 18.6996 3.27303ZM18.0785 8.08784C18.3154 8.15239 18.5439 8.19644 18.7596 8.21999C19.5759 8.30908 20.0956 8.10104 20.3249 7.76635C20.5543 7.43165 20.5622 6.8698 20.1879 6.1358C19.8227 5.41974 19.1367 4.64232 18.2034 3.99714C17.2702 3.35197 16.3022 2.98591 15.5059 2.899C14.6897 2.80992 14.17 3.01796 13.9406 3.35265C13.7113 3.68734 13.7034 4.24919 14.0777 4.98319C14.1559 5.1365 14.2488 5.29261 14.3556 5.44964C14.4346 5.40003 14.5181 5.34628 14.6048 5.289C14.5119 5.11119 14.4425 4.92877 14.4086 4.74762C14.3602 4.48885 14.38 4.19902 14.5511 3.94931C14.7222 3.6996 14.9847 3.57758 15.2426 3.53056C15.4982 3.48395 15.7817 3.50332 16.0652 3.56249C16.6342 3.68121 17.2919 3.97874 17.9189 4.4122C18.5458 4.84566 19.0574 5.35644 19.371 5.84787C19.5272 6.09276 19.6465 6.35177 19.6944 6.60824C19.7428 6.86702 19.723 7.15685 19.5519 7.40655C19.3808 7.65626 19.1183 7.77828 18.8604 7.82531C18.6479 7.86405 18.4161 7.8572 18.1811 7.81979C18.1451 7.9103 18.1109 7.99997 18.0785 8.08784ZM18.567 6.97219C18.6195 6.9717 18.6652 6.96746 18.7041 6.96038C18.7569 6.95074 18.7895 6.93723 18.8076 6.9269C18.8243 6.91742 18.8293 6.91054 18.831 6.90815C18.8326 6.90576 18.8372 6.89859 18.8401 6.87955C18.8432 6.85882 18.8441 6.82346 18.8342 6.77044C18.8252 6.72237 18.8085 6.66603 18.7825 6.60218C18.7095 6.7147 18.6373 6.8393 18.567 6.97219ZM18.3503 5.94898C18.1132 5.6786 17.799 5.3965 17.4226 5.13631C17.1399 4.94085 16.8582 4.78271 16.5931 4.66273C16.2207 5.0301 15.697 5.42938 15.2211 5.75589C15.0834 5.85035 14.9465 5.94095 14.8154 6.02455C15.7696 6.5499 16.6123 7.26042 17.2968 8.10883C17.3607 7.92191 17.4334 7.72413 17.5131 7.52472C17.7326 6.97547 18.021 6.37445 18.3503 5.94898ZM15.7919 4.40542C15.6227 4.37789 15.4914 4.37863 15.3989 4.39548C15.3461 4.40512 15.3135 4.41864 15.2954 4.42896C15.2787 4.43845 15.2737 4.44533 15.272 4.44771C15.2704 4.4501 15.2658 4.45728 15.2629 4.47632C15.2598 4.49705 15.2589 4.5324 15.2688 4.58543C15.2788 4.63909 15.2985 4.70305 15.33 4.77627C15.4926 4.65305 15.6493 4.52785 15.7919 4.40542ZM10.8869 5.91444C6.79396 5.91444 3.47473 9.29888 3.47473 13.4923C3.47473 17.6857 6.79396 21.0702 10.8869 21.0702C14.9664 21.0702 18.299 17.6854 18.299 13.4923C18.299 9.29888 14.9798 5.91444 10.8869 5.91444Z" fill="#302DBB"/>
</svg>

<svg xmlns="http://www.w3.org/2000/svg" width="24" height="24" viewBox="0 0 24 24" fill="none"><path fill="#302dbb" d="M10.858 15.977c-3.211.465-5.578-.495-6.436-1.588.26 3.33 3.048 5.756 6.438 5.756 3.502 0 6.292-2.59 6.383-6.09-.241.111-.57.191-.948.284-.334.082-.708.173-1.096.304-.323.11-.634.236-.957.365-.894.358-1.87.748-3.384.97"/><path fill="#302dbb" d="M17.244 13.046c0-.724-1.28-1.139-2.985-1.281-1.233-.095-2.478.024-3.904.45-1.233.357-2.345.297-3.155.202-1.8-.201-2.792-.225-2.792.629 0 1.234 2.563 2.776 6.406 2.242 1.43-.2 2.35-.554 3.194-.879.305-.117.599-.23.904-.33.366-.12.718-.202 1.034-.276.756-.178 1.298-.305 1.298-.757m-3.927-4.378c0 .693-.55 1.256-1.229 1.256-.678 0-1.229-.563-1.229-1.256s.55-1.255 1.23-1.255c.678 0 1.228.562 1.228 1.255m.779 2.19a.525.525 0 0 0 .518-.53.525.525 0 0 0-.519-.53.524.524 0 0 0-.518.53c0 .293.232.53.518.53"/><path fill="#302dbb" fill-rule="evenodd" d="M18.7 3.273c-1.03-.711-2.133-1.142-3.1-1.248-.946-.103-1.881.101-2.38.83-.5.727-.202 1.655.232 2.506l.043.082a8.1 8.1 0 0 0-2.608-.429c-4.59 0-8.303 3.8-8.303 8.478 0 4.679 3.713 8.478 8.303 8.478s8.302-3.8 8.302-8.478c0-1.714-.5-3.31-1.36-4.646l.036-.122q.381.111.77.153c.946.104 1.912.116 2.41-.612.5-.728.356-1.679-.078-2.53-.444-.87-1.238-1.75-2.267-2.462m-.622 4.815q.357.096.682.132c.816.09 1.336-.119 1.565-.454.23-.334.237-.896-.137-1.63-.365-.716-1.051-1.494-1.985-2.139-.933-.645-1.9-1.011-2.697-1.098-.816-.09-1.336.119-1.565.454-.23.334-.238.896.137 1.63q.117.231.278.467l.249-.161a2 2 0 0 1-.196-.541c-.049-.26-.029-.549.142-.799s.434-.371.692-.418c.255-.047.539-.028.822.031.57.12 1.227.417 1.854.85.627.434 1.138.944 1.452 1.436.156.245.276.504.323.76.049.259.029.549-.142.799s-.434.371-.692.418a2 2 0 0 1-.679-.005q-.054.135-.103.268m.489-1.116a1 1 0 0 0 .137-.012.3.3 0 0 0 .104-.033.1.1 0 0 0 .023-.019.1.1 0 0 0 .01-.028.3.3 0 0 0-.007-.11 1 1 0 0 0-.052-.168 5 5 0 0 0-.215.37M18.35 5.95a5 5 0 0 0-.927-.813 5.4 5.4 0 0 0-.83-.473c-.372.367-.896.766-1.372 1.093q-.208.142-.406.269a8.4 8.4 0 0 1 2.482 2.084c.064-.187.136-.385.216-.584.22-.55.508-1.15.837-1.576m-2.558-1.544c-.17-.027-.3-.026-.393-.01a.3.3 0 0 0-.104.034.1.1 0 0 0-.023.019.1.1 0 0 0-.01.028.3.3 0 0 0 .007.11q.015.08.061.19c.163-.123.32-.248.462-.37m-4.905 1.51c-4.093 0-7.412 3.384-7.412 7.577 0 4.194 3.319 7.578 7.412 7.578 4.08 0 7.412-3.385 7.412-7.578s-3.32-7.578-7.412-7.578" clip-rule="evenodd"/></svg>
